flags/gs.svg

<svg width="512" height="512" viewBox="0 0 512 512" fill="none" xmlns="http://www.w3.org/2000/svg">
<rect width="512" height="512" fill="var(--flag-palette-navy, #002266)"/>
<rect width="256" height="256" fill="var(--flag-palette-navy, #002266)"/>
<path d="M232 256H256V232L152 128L256 24V0H232L128 104L24 0H0V24L104 128L0 232V256H24L128 152L232 256Z" fill="var(--flag-palette-white, #eeeeee)"/>
<path d="M256 160V96H160V0H96V96H0V160H96V256H160V160H256Z" fill="var(--flag-palette-white, #eeeeee)"/>
<path d="M256 144V112H144V0H112V112H0V144H112V256H144V144H256Z" fill="var(--flag-palette-bright-red, #d80027)"/>
<path d="M0 16V0L96 96H80L0 16Z" fill="var(--flag-palette-bright-red, #d80027)"/>
<path d="M256 240L256 256L160 160L176 160L256 240Z" fill="var(--flag-palette-bright-red, #d80027)"/>
<path d="M16 256L0 256L96 160L96 176L16 256Z" fill="var(--flag-palette-bright-red, #d80027)"/>
<path d="M240 -6.99382e-07L256 0L160 96L160 80L240 -6.99382e-07Z" fill="var(--flag-palette-bright-red, #d80027)"/>
<path d="M400 316H368C359.163 316 352 323.163 352 332C352 340.837 359.163 348 368 348H400C408.837 348 416 340.837 416 332C416 323.163 408.837 316 400 316Z" fill="var(--flag-palette-green, #6da544)"/>
<path d="M384 188C401.673 188 416 173.673 416 156C416 138.327 401.673 124 384 124C366.327 124 352 138.327 352 156C352 173.673 366.327 188 384 188Z" fill="var(--flag-palette-brown, #85693d)"/>
<path d="M384 252C410.51 252 432 230.51 432 204C432 177.49 410.51 156 384 156C357.49 156 336 177.49 336 204C336 230.51 357.49 252 384 252Z" fill="var(--flag-palette-mid-grey-3, #acabb1)"/>
<path d="M336 204V281C336 317 384 329 384 329C384 329 432 317 432 281V204H336Z" fill="var(--flag-palette-light-blue, #338af3)"/>
<path d="M336 204C336 195.163 328.837 188 320 188C311.163 188 304 195.163 304 204V300C304 308.837 311.163 316 320 316C328.837 316 336 308.837 336 300V204Z" fill="var(--flag-palette-dark-grey, #818085)"/>
<path d="M464 204C464 195.163 456.837 188 448 188C439.163 188 432 195.163 432 204V300C432 308.837 439.163 316 448 316C456.837 316 464 308.837 464 300V204Z" fill="var(--flag-palette-dark-grey, #818085)"/>
<path d="M336 204L384 316L432 204H336Z" fill="var(--flag-palette-green, #6da544)"/>
<path fill-rule="evenodd" clip-rule="evenodd" d="M296.675 367.473C300.384 369.585 304.213 371.587 308.05 373.423L308.644 373.704L307.333 376.607L306.058 379.433L308.883 380.707C320.696 386.045 333.115 390.127 345.797 392.842C358.332 395.525 371.198 396.887 384.028 396.887C396.857 396.887 409.723 395.525 422.262 392.842C434.94 390.127 447.36 386.045 459.177 380.707L462.002 379.433L460.727 376.607L459.416 373.704L460.009 373.423C463.852 371.587 467.68 369.585 471.385 367.473L476 364.841L471.435 362.122C468.196 360.189 464.984 358.141 461.873 356.029C461.753 351.989 461.514 347.935 461.164 343.954L460.741 339.141L456.544 341.534C452.771 343.683 448.86 345.689 444.912 347.498L438.718 350.332L440.494 355.196C422.506 362.425 403.543 366.088 384.028 366.088C364.512 366.088 345.379 362.393 327.317 355.095L329.342 350.328L323.144 347.493C319.2 345.689 315.284 343.683 311.511 341.529L307.268 339.113L306.886 343.982C306.573 347.976 306.375 352.044 306.297 356.093C303.159 358.187 299.919 360.207 296.648 362.108L292 364.813L296.675 367.478L296.675 367.473Z" fill="var(--flag-palette-dark-yellow, #ffc635)"/>
</svg>

<svg xmlns="http://www.w3.org/2000/svg" width="512" height="512" fill="none"><path fill="var(--flag-palette-navy, #002266)" d="M0 0h512v512H0z"/><path fill="var(--flag-palette-navy, #002266)" d="M0 0h256v256H0z"/><path fill="var(--flag-palette-white, #eeeeee)" d="M232 256h24v-24L152 128 256 24V0h-24L128 104 24 0H0v24l104 104L0 232v24h24l104-104z"/><path fill="var(--flag-palette-white, #eeeeee)" d="M256 160V96h-96V0H96v96H0v64h96v96h64v-96z"/><path fill="var(--flag-palette-bright-red, #d80027)" d="M256 144v-32H144V0h-32v112H0v32h112v112h32V144z"/><path fill="var(--flag-palette-bright-red, #d80027)" d="M0 16V0l96 96H80zm256 224v16l-96-96h16zM16 256H0l96-96v16zM240 0h16l-96 96V80z"/><path fill="var(--flag-palette-green, #6da544)" d="M400 316h-32a16 16 0 1 0 0 32h32a16 16 0 1 0 0-32"/><path fill="var(--flag-palette-brown, #85693d)" d="M384 188a32 32 0 1 0 0-64 32 32 0 0 0 0 64"/><path fill="var(--flag-palette-mid-grey-3, #acabb1)" d="M384 252a48 48 0 1 0 0-96 48 48 0 0 0 0 96"/><path fill="var(--flag-palette-light-blue, #338af3)" d="M336 204v77c0 36 48 48 48 48s48-12 48-48v-77z"/><path fill="var(--flag-palette-dark-grey, #818085)" d="M336 204a16 16 0 1 0-32 0v96a16 16 0 1 0 32 0zm128 0a16 16 0 1 0-32 0v96a16 16 0 1 0 32 0z"/><path fill="var(--flag-palette-green, #6da544)" d="m336 204 48 112 48-112z"/><path fill="var(--flag-palette-dark-yellow, #ffc635)" fill-rule="evenodd" d="m296.7 367.5 11.4 6 .5.2-1.3 3-1.2 2.7 2.8 1.3a183 183 0 0 0 150.3 0l2.8-1.3-1.3-2.8-1.3-2.9.6-.3q5.8-2.7 11.4-6l4.6-2.6-4.6-2.7-9.5-6q-.2-6.2-.7-12.1l-.5-4.9-4.2 2.4a149 149 0 0 1-11.6 6l-6.2 2.8 1.8 4.9a151 151 0 0 1-113.2-.1l2-4.8-6.2-2.8q-5.9-2.7-11.6-6l-4.2-2.4-.4 4.9-.6 12q-4.7 3.3-9.7 6.1l-4.6 2.7z" clip-rule="evenodd"/></svg>
